fs/gift_card_add_24_filled.svg

<svg viewBox="0 0 24 24" fill="none" xmlns="http://www.w3.org/2000/svg" height="1em" width="1em">
  <path d="M7.99997 2H5C3.34315 2 2 3.34315 2 5V8H4.70802C4.57422 7.69377 4.5 7.35555 4.5 7C4.5 5.61929 5.61929 4.50001 6.99999 4.50001C7.35554 4.5 7.69375 4.57422 7.99997 4.70802V2ZM2 9.5V14C2 15.6569 3.34315 17 5 17H7.99997V10.5607L6.28033 12.2803C5.98744 12.5732 5.51256 12.5732 5.21967 12.2803C4.92678 11.9874 4.92678 11.5126 5.21967 11.2197L6.93934 9.5H2ZM9.49997 17H11.0189C11.2743 13.6438 14.0784 11 17.5 11C19.2465 11 20.8321 11.6888 22 12.8096V9.5H10.5607L12.2803 11.2197C12.5732 11.5126 12.5732 11.9874 12.2803 12.2803C11.9874 12.5732 11.5126 12.5732 11.2197 12.2803L9.49997 10.5606V17ZM22 8H12.792C12.9258 7.69377 13 7.35555 13 7C13 5.61929 11.8807 4.5 10.5 4.5C10.1444 4.5 9.80621 4.57423 9.49997 4.70803V2H19C20.6569 2 22 3.34315 22 5V8ZM10.5 8H9.5V7C9.5 6.44772 9.94772 6 10.5 6C11.0523 6 11.5 6.44772 11.5 7C11.5 7.55228 11.0523 8 10.5 8ZM7.99997 8H7C6.44771 8 6 7.55229 6 7C6 6.44772 6.44771 6.00001 7 6.00001C7.54975 6 7.9959 6.44363 7.99997 6.99242V8ZM23 17.5C23 14.4624 20.5376 12 17.5 12C14.4624 12 12 14.4624 12 17.5C12 20.5376 14.4624 23 17.5 23C20.5376 23 23 20.5376 23 17.5ZM18.0006 18L18.0011 20.5035C18.0011 20.7797 17.7773 21.0035 17.5011 21.0035C17.225 21.0035 17.0011 20.7797 17.0011 20.5035L17.0006 18H14.4956C14.2197 18 13.9961 17.7762 13.9961 17.5C13.9961 17.2239 14.2197 17 14.4956 17H17.0005L17 14.4993C17 14.2231 17.2239 13.9993 17.5 13.9993C17.7761 13.9993 18 14.2231 18 14.4993L18.0005 17H20.4966C20.7725 17 20.9961 17.2239 20.9961 17.5C20.9961 17.7762 20.7725 18 20.4966 18H18.0006Z" fill="#212121"/>
</svg>

<svg viewBox="0 0 24 24" fill="none" xmlns="http://www.w3.org/2000/svg" height="1em" width="1em">
  <path d="M8 2H5a3 3 0 0 0-3 3v3h2.708A2.5 2.5 0 0 1 8 4.708V2ZM2 9.5V14a3 3 0 0 0 3 3h3v-6.44l-1.72 1.72a.75.75 0 0 1-1.06-1.06L6.94 9.5H2ZM9.5 17h1.519A6.5 6.5 0 0 1 22 12.81V9.5H10.56l1.72 1.72a.75.75 0 1 1-1.06 1.06L9.5 10.56V17ZM22 8h-9.208A2.5 2.5 0 0 0 9.5 4.708V2H19a3 3 0 0 1 3 3v3ZM10.5 8h-1V7a1 1 0 1 1 1 1ZM8 8H7a1 1 0 1 1 1-1.008V8Zm15 9.5a5.5 5.5 0 1 0-11 0 5.5 5.5 0 0 0 11 0Zm-5 .5.001 2.503a.5.5 0 1 1-1 0V18h-2.505a.5.5 0 0 1 0-1H17v-2.5a.5.5 0 1 1 1 0V17h2.497a.5.5 0 0 1 0 1H18Z" fill="#212121"/>
</svg>
